X: 1
T: Connor Bones
M: 4/4
L: 1/8
R: reel
K: Gmaj
|:G2GB BAGE | C2CE EDCE | D2BD GDBD | DEGB AGEF |
|G2GB BAGE | C2CE EDCE | D2BD GDBD | DEGB AGGA :|
|:B2Bc dBGB | c2cd ecAc | B2Bc dBGB |DEGB AGGA |
| B2Bc dBGB | c2cd ecAc |1 B2BA GAGE |
DEGB AGGA :|2 BcAB GAEG | DEGB AGEF ||
